svg/ionicons/server-sharp.svg

<svg width="512" height="512" viewBox="0 0 512 512" xmlns="http://www.w3.org/2000/svg">
<path d="M125.295 40.7282C159.804 25.1587 206.27 16 256.5 16C306.73 16 352.966 25.1588 387.248 40.7476C420.143 55.7056 448 80 448 112V112.03C447.989 117.563 444.902 125.92 435.705 136.25C426.71 146.352 413.088 156.908 395.432 166.514C360.162 185.702 310.794 200 256 200C201.206 200 151.838 185.702 116.568 166.514C98.9116 156.908 85.2901 146.352 76.2953 136.25C67.0809 125.901 64 117.532 64 112C64 79.5721 92.2455 55.6392 125.295 40.7282Z" />
<path d="M410.724 194.623C424.937 186.892 437.558 176.244 448 165.024V258C448 263.532 444.919 269.901 435.705 280.25C426.71 290.352 413.088 300.908 395.432 310.514C360.162 329.702 310.794 344 256 344C201.206 344 151.838 329.702 116.568 310.514C98.9116 300.908 85.2901 290.352 76.2953 280.25C67.0809 269.901 64 263.532 64 258V165.024C74.4417 176.244 87.0634 186.892 101.276 194.623C141.286 216.39 195.918 232 256 232C316.082 232 370.714 216.39 410.724 194.623Z" />
<path d="M64 309.024V400C64 432.224 92.0043 456.169 124.928 471.134C159.297 486.756 205.653 496 256 496C306.347 496 352.703 486.756 387.072 471.134C419.996 456.169 448 432.224 448 400V309.024C437.558 320.244 424.937 330.892 410.724 338.623C370.714 360.39 316.082 376 256 376C195.918 376 141.286 360.39 101.276 338.623C87.0634 330.892 74.4417 320.244 64 309.024Z" />
</svg>

<svg xmlns="http://www.w3.org/2000/svg" width="512" height="512" viewBox="0 0 512 512"><path d="M125.295 40.728C159.804 25.158 206.27 16 256.5 16s96.466 9.159 130.748 24.748C420.143 55.706 448 80 448 112v.03c-.011 5.533-3.098 13.89-12.295 24.22-8.995 10.102-22.617 20.658-40.273 30.264C360.162 185.702 310.794 200 256 200s-104.162-14.298-139.432-33.486c-17.656-9.606-31.278-20.162-40.273-30.264C67.081 125.901 64 117.532 64 112c0-32.428 28.246-56.36 61.295-71.272"/><path d="M410.724 194.623c14.213-7.731 26.834-18.379 37.276-29.599V258c0 5.532-3.081 11.901-12.295 22.25-8.995 10.102-22.617 20.658-40.273 30.264C360.162 329.702 310.794 344 256 344s-104.162-14.298-139.432-33.486c-17.656-9.606-31.278-20.162-40.273-30.264C67.081 269.901 64 263.532 64 258v-92.976c10.442 11.22 23.063 21.868 37.276 29.599C141.286 216.39 195.918 232 256 232s114.714-15.61 154.724-37.377"/><path d="M64 309.024V400c0 32.224 28.004 56.169 60.928 71.134C159.297 486.756 205.653 496 256 496s96.703-9.244 131.072-24.866C419.996 456.169 448 432.224 448 400v-90.976c-10.442 11.22-23.063 21.868-37.276 29.599C370.714 360.39 316.082 376 256 376s-114.714-15.61-154.724-37.377C87.063 330.892 74.442 320.244 64 309.024"/></svg>
